SVG_Azure_Grouped/Application/CloudTest Image.svg

<?xml version="1.0" encoding="UTF-8" standalone="no"?>
<!-- Generated by Microsoft Visio, SVG Export CloudTest Image.svg Page-1 -->

<svg
   xmlns:dc="http://purl.org/dc/elements/1.1/"
   xmlns:cc="http://creativecommons.org/ns#"
   xmlns:rdf="http://www.w3.org/1999/02/22-rdf-syntax-ns#"
   xmlns:svg="http://www.w3.org/2000/svg"
   xmlns="http://www.w3.org/2000/svg"
   xmlns:sodipodi="http://sodipodi.sourceforge.net/DTD/sodipodi-0.dtd"
   xmlns:inkscape="http://www.inkscape.org/namespaces/inkscape"
   width="0.78735363in"
   height="0.7479108in"
   viewBox="0 0 56.68937 53.849718"
   xml:space="preserve"
   class="st5"
   version="1.1"
   id="svg51"
   sodipodi:docname="CloudTest Image.svg"
   style="font-size:12px;overflow:visible;color-interpolation-filters:sRGB;fill:none;fill-rule:evenodd;stroke-linecap:square;stroke-miterlimit:3"
   inkscape:version="0.92.5 (2060ec1f9f, 2020-04-08)"><metadata
   id="metadata55"><rdf:RDF><cc:Work
       rdf:about=""><dc:format>image/svg+xml</dc:format><dc:type
         rdf:resource="http://purl.org/dc/dcmitype/StillImage" /></cc:Work></rdf:RDF></metadata><sodipodi:namedview
   pagecolor="#ffffff"
   bordercolor="#666666"
   borderopacity="1"
   objecttolerance="10"
   gridtolerance="10"
   guidetolerance="10"
   inkscape:pageopacity="0"
   inkscape:pageshadow="2"
   inkscape:window-width="640"
   inkscape:window-height="480"
   id="namedview53"
   showgrid="false"
   inkscape:zoom="1.4523234"
   inkscape:cx="37.795237"
   inkscape:cy="35.889642"
   inkscape:window-x="0"
   inkscape:window-y="0"
   inkscape:window-maximized="0"
   inkscape:current-layer="svg51" />
	<style
   type="text/css"
   id="style2">
	<![CDATA[
		.st1 {fill:url(#grad0-6);stroke:none;stroke-linecap:butt;stroke-width:34}
		.st2 {fill:#0078d4;stroke:none;stroke-linecap:butt;stroke-width:34}
		.st3 {fill:url(#grad0-12);stroke:none;stroke-linecap:butt;stroke-width:34}
		.st4 {fill:#198ab3;stroke:none;stroke-linecap:butt;stroke-width:34}
		.st5 {fill:none;fill-rule:evenodd;font-size:12px;overflow:visible;stroke-linecap:square;stroke-miterlimit:3}
	]]>
	</style>

	<defs
   id="Patterns_And_Gradients">
		<linearGradient
   id="grad0-6"
   x1="0"
   y1="122.44018"
   x2="37.082856"
   y2="122.44018"
   gradientTransform="scale(1.3089607,0.76396489)"
   gradientUnits="userSpaceOnUse">
			<stop
   offset="0"
   stop-color="#0078d4"
   stop-opacity="1"
   id="stop4" />
			<stop
   offset="0.5"
   stop-color="#4093e6"
   stop-opacity="1"
   id="stop6" />
			<stop
   offset="0.775"
   stop-color="#5ea0ef"
   stop-opacity="1"
   id="stop8" />
		</linearGradient>
		<linearGradient
   id="grad0-12"
   x1="0"
   y1="122.44018"
   x2="37.082856"
   y2="122.44018"
   gradientTransform="scale(1.3089607,0.76396489)"
   gradientUnits="userSpaceOnUse">
			<stop
   offset="0"
   stop-color="#32bedd"
   stop-opacity="1"
   id="stop11" />
			<stop
   offset="0.175"
   stop-color="#32caea"
   stop-opacity="1"
   id="stop13" />
			<stop
   offset="0.41"
   stop-color="#32d2f2"
   stop-opacity="1"
   id="stop15" />
			<stop
   offset="0.775"
   stop-color="#32d4f5"
   stop-opacity="1"
   id="stop17" />
		</linearGradient>
	</defs>
	<g
   id="g49"
   transform="translate(-34.000261,-34.004584)">
		<title
   id="title21">Page-1</title>
		<g
   id="group14283-1"
   transform="translate(34,-34.0157)">
			<title
   id="title23">CloudTest Image.14283</title>
			<g
   id="group14284-2">
				<title
   id="title25">MsPortalFx.base.images-19</title>
				<g
   id="shape14285-3"
   transform="translate(0,-15.3016)">
					<title
   id="title27">Sheet.14285</title>
					<path
   d="m 0,93.54 h 48.54 v 26.73 a 1.62283,1.60332 0 0 1 -1.62,1.6 H 1.62 A 1.62283,1.60332 0 0 1 0,120.27 Z"
   class="st1"
   id="path29"
   inkscape:connector-curvature="0"
   style="fill:url(#grad0-6);stroke:none;stroke-width:34;stroke-linecap:butt" />
				</g>
				<g
   id="shape14286-7"
   transform="translate(0,-43.6397)">
					<title
   id="title32">Sheet.14286</title>
					<path
   d="M 1.63,111.66 H 46.9 a 1.62283,1.60332 0 0 1 1.63,1.6 v 8.61 H 0 v -8.61 a 1.62283,1.60332 0 0 1 1.63,-1.6 z"
   class="st2"
   id="path34"
   inkscape:connector-curvature="0"
   style="fill:#0078d4;stroke:none;stroke-width:34;stroke-linecap:butt" />
				</g>
				<g
   id="shape14287-9"
   transform="translate(8.14961)">
					<title
   id="title37">Sheet.14287</title>
					<path
   d="m 0,93.54 h 48.54 v 26.73 a 1.62283,1.60332 0 0 1 -1.62,1.6 H 1.63 a 1.62283,1.60332 0 0 1 -1.62,-1.6 V 93.54 Z"
   class="st3"
   id="path39"
   inkscape:connector-curvature="0"
   style="fill:url(#grad0-12);stroke:none;stroke-width:34;stroke-linecap:butt" />
				</g>
				<g
   id="shape14288-13"
   transform="translate(8.14961,-28.3382)">
					<title
   id="title42">Sheet.14288</title>
					<path
   d="m 1.64,111.64 h 45.27 a 1.62283,1.60332 0 0 1 1.63,1.6 v 8.63 H 0 v -8.63 a 1.62283,1.60332 0 0 1 1.64,-1.6 z"
   class="st4"
   id="path44"
   inkscape:connector-curvature="0"
   style="fill:#198ab3;stroke:none;stroke-width:34;stroke-linecap:butt" />
				</g>
			</g>
		</g>
	</g>
</svg>

<?xml version="1.0" encoding="UTF-8" standalone="no"?>
<!DOCTYPE svg PUBLIC "-//W3C//DTD SVG 1.1//EN" "http://www.w3.org/Graphics/SVG/1.1/DTD/svg11.dtd">
<!-- Generated by Microsoft Visio, SVG Export CloudTest Image.svg Page-1 -->
<svg xmlns="http://www.w3.org/2000/svg" xmlns:xlink="http://www.w3.org/1999/xlink" xmlns:ev="http://www.w3.org/2001/xml-events"
		width="1.73185in" height="1.69269in" viewBox="0 0 124.693 121.874" xml:space="preserve" color-interpolation-filters="sRGB"
		class="st5">
	<style type="text/css">
	<![CDATA[
		.st1 {fill:url(#grad0-6);stroke:none;stroke-linecap:butt;stroke-width:34}
		.st2 {fill:#0078d4;stroke:none;stroke-linecap:butt;stroke-width:34}
		.st3 {fill:url(#grad0-12);stroke:none;stroke-linecap:butt;stroke-width:34}
		.st4 {fill:#198ab3;stroke:none;stroke-linecap:butt;stroke-width:34}
		.st5 {fill:none;fill-rule:evenodd;font-size:12px;overflow:visible;stroke-linecap:square;stroke-miterlimit:3}
	]]>
	</style>

	<defs id="Patterns_And_Gradients">
		<linearGradient id="grad0-6" x1="0" y1="0" x2="1" y2="0" gradientTransform="rotate(-90 0.5 0.5)">
			<stop offset="0" stop-color="#0078d4" stop-opacity="1"/>
			<stop offset="0.5" stop-color="#4093e6" stop-opacity="1"/>
			<stop offset="0.775" stop-color="#5ea0ef" stop-opacity="1"/>
		</linearGradient>
		<linearGradient id="grad0-12" x1="0" y1="0" x2="1" y2="0" gradientTransform="rotate(-90 0.5 0.5)">
			<stop offset="0" stop-color="#32bedd" stop-opacity="1"/>
			<stop offset="0.175" stop-color="#32caea" stop-opacity="1"/>
			<stop offset="0.41" stop-color="#32d2f2" stop-opacity="1"/>
			<stop offset="0.775" stop-color="#32d4f5" stop-opacity="1"/>
		</linearGradient>
	</defs>
	<g>
		<title>Page-1</title>
		<g id="group13936-1" transform="translate(34,-34.0157)">
			<title>CloudTest Image.13936</title>
			<g id="group13937-2">
				<title>MsPortalFx.base.images-19</title>
				<g id="shape13938-3" transform="translate(0,-15.3016)">
					<title>Sheet.13938</title>
					<path d="M0 93.54 L48.54 93.54 L48.54 120.27 A1.62283 1.60332 0 0 1 46.92 121.87 L1.62 121.87 A1.62283 1.60332
								 0 0 1 0 120.27 L0 93.54 Z" class="st1"/>
				</g>
				<g id="shape13939-7" transform="translate(0,-43.6397)">
					<title>Sheet.13939</title>
					<path d="M1.63 111.66 L46.9 111.66 A1.62283 1.60332 0 0 1 48.53 113.26 L48.53 121.87 L0 121.87 L0 113.26 A1.62283
								 1.60332 0 0 1 1.63 111.66 Z" class="st2"/>
				</g>
				<g id="shape13940-9" transform="translate(8.14961,-2.70006E-13)">
					<title>Sheet.13940</title>
					<path d="M0 93.54 L48.54 93.54 L48.54 120.27 A1.62283 1.60332 0 0 1 46.92 121.87 L1.63 121.87 A1.62283 1.60332
								 0 0 1 0.01 120.27 L0.01 93.54 L0 93.54 Z" class="st3"/>
				</g>
				<g id="shape13941-13" transform="translate(8.14961,-28.3382)">
					<title>Sheet.13941</title>
					<path d="M1.64 111.64 L46.91 111.64 A1.62283 1.60332 0 0 1 48.54 113.24 L48.54 121.87 L0 121.87 L0 113.24 A1.62283
								 1.60332 0 0 1 1.64 111.64 Z" class="st4"/>
				</g>
			</g>
		</g>
	</g>
</svg>
